symbols/be/PREQ.svg

<?xml version="1.0" encoding="UTF-8" standalone="no"?>
<!-- Created with Inkscape (http://www.inkscape.org/) -->

<svg
   width="31.029999"
   height="22.029999"
   viewBox="0 0 31.029999 22.029999"
   version="1.1"
   id="svg1"
   xmlns="http://www.w3.org/2000/svg"
   xmlns:svg="http://www.w3.org/2000/svg">
  <defs
     id="defs1" />
  <rect
     style="fill:#ffffff;fill-opacity:1;fill-rule:evenodd;stroke:#000000;stroke-width:0.03;stroke-linejoin:bevel;stroke-dasharray:none;stroke-opacity:1"
     id="rect1"
     width="31"
     height="22"
     x="0.015"
     y="0.015"
     ry="1"
     rx="1" />
  <path
     d="M 20.6964,18.800053 V 3.2558534 c 0,-0.466326 -0.388605,-0.880838 -0.854931,-0.880838 -0.466326,0 -0.880838,0.414512 -0.880838,0.880838 V 9.2921843 H 12.069369 V 3.2558534 c 0,-0.466326 -0.414512,-0.880838 -0.880838,-0.880838 -0.466326,0 -0.854931,0.414512 -0.854931,0.880838 V 18.800053 c 0,0.466326 0.388605,0.854931 0.854931,0.854931 0.466326,0 0.880838,-0.388605 0.880838,-0.854931 v -7.7721 h 6.891262 v 7.7721 c 0,0.466326 0.414512,0.854931 0.880838,0.854931 0.466326,0 0.854931,-0.388605 0.854931,-0.854931 z"
     id="text1"
     style="font-size:25.907px;font-family:Isonorm;-inkscape-font-specification:'Isonorm, Normal';fill-rule:evenodd;stroke:#000000;stroke-width:0.0529917;stroke-linejoin:bevel"
     aria-label="H" />
</svg>

<?xml version="1.0" encoding="UTF-8"?>
<svg xmlns="http://www.w3.org/2000/svg" xmlns:xlink="http://www.w3.org/1999/xlink" width="19.719474" height="14" viewBox="0 0 19.719474 14">
<path fill-rule="evenodd" fill="rgb(100%, 100%, 100%)" fill-opacity="1" stroke-width="0.03" stroke-linecap="butt" stroke-linejoin="bevel" stroke="rgb(0%, 0%, 0%)" stroke-opacity="1" stroke-miterlimit="4" d="M 1.014216 0.0122935 L 30.014644 0.0122935 C 30.567853 0.0122935 31.016566 0.461007 31.016566 1.014216 L 31.016566 21.015783 C 31.016566 21.568992 30.567853 22.017705 30.014644 22.017705 L 1.014216 22.017705 C 0.461007 22.017705 0.0122935 21.568992 0.0122935 21.015783 L 0.0122935 1.014216 C 0.0122935 0.461007 0.461007 0.0122935 1.014216 0.0122935 Z M 1.014216 0.0122935 " transform="matrix(0.635497, 0, 0, 0.635497, 0, 0)"/>
<path fill-rule="evenodd" fill="rgb(0%, 0%, 0%)" fill-opacity="1" stroke-width="0.0529917" stroke-linecap="butt" stroke-linejoin="bevel" stroke="rgb(0%, 0%, 0%)" stroke-opacity="1" stroke-miterlimit="4" d="M 20.696151 18.802948 L 20.696151 3.257784 C 20.696151 2.79063 20.308905 2.372651 19.841751 2.372651 C 19.374597 2.372651 18.962764 2.79063 18.962764 3.257784 L 18.962764 9.293906 L 12.072243 9.293906 L 12.072243 3.257784 C 12.072243 2.79063 11.654263 2.372651 11.187109 2.372651 C 10.719955 2.372651 10.332709 2.79063 10.332709 3.257784 L 10.332709 18.802948 C 10.332709 19.263955 10.719955 19.657348 11.187109 19.657348 C 11.654263 19.657348 12.072243 19.263955 12.072243 18.802948 L 12.072243 11.027293 L 18.962764 11.027293 L 18.962764 18.802948 C 18.962764 19.263955 19.374597 19.657348 19.841751 19.657348 C 20.308905 19.657348 20.696151 19.263955 20.696151 18.802948 Z M 20.696151 18.802948 " transform="matrix(0.635497, 0, 0, 0.635497, 0, 0)"/>
</svg>
